azure-docs/api_videoindexer.svg

<?xml version="1.0" encoding="UTF-8"?>
<svg width="512px" height="512px" viewBox="0 0 512 512" version="1.1" xmlns="http://www.w3.org/2000/svg" xmlns:xlink="http://www.w3.org/1999/xlink">
    <!-- Generator: Sketch 46.2 (44496) - http://www.bohemiancoding.com/sketch -->
    <title>videoIndexer-wht-bluBG-512p</title>
    <desc>Created with Sketch.</desc>
    <defs></defs>
    <g id="PRODUCTION-ICONS" stroke="none" stroke-width="1" fill="none" fill-rule="evenodd">
        <g id="videoIndexer-wht-bluBG-512p">
            <g id="Video-Indexer">
                <rect id="Rectangle-3-Copy-5" fill="#0063B1" x="0" y="0" width="512" height="512"></rect>
                <path d="M159.289455,136.217074 L159.289455,237.874084 L136.5339,237.874084 L136.5339,96.7111111 L259.8171,168.22146 L248.399499,187.905303 L159.289455,136.217074 Z M283.708692,308.323587 L369.857029,258.354787 L283.708611,208.384989 L295.12612,188.701092 L415.210091,258.354974 L295.126039,328.007578 L283.708692,308.323587 Z M159.288889,380.491435 L248.398932,328.803206 L259.816534,348.487049 L136.533333,419.997398 L136.533333,278.834425 L159.288889,278.834425 L159.288889,380.491435 Z" id="Combined-Shape" fill="#FFFFFF" fill-rule="nonzero"></path>
            </g>
        </g>
    </g>
</svg>

<svg width="512" height="512" xmlns="http://www.w3.org/2000/svg"><g fill="none" fill-rule="evenodd"><path fill="#0063B1" d="M0 0h512v512H0z"/><path d="M159.29 136.217v101.657h-22.756V96.711l123.283 71.51-11.418 19.684-89.11-51.688zm124.419 172.107l86.148-49.97-86.148-49.969 11.417-19.684 120.084 69.654-120.084 69.653-11.417-19.684zm-124.42 72.167l89.11-51.688 11.418 19.684-123.284 71.51V278.834h22.756v101.657z" fill="#FFF" fill-rule="nonzero"/></g></svg>
